X:805
T:Jamie Rae
D:Colin Campbell, Highland Style (1973)
Z:Nigel Gatherer
M:6/8
L:1/8
K:A mix
g|A>AA a3|geg a3|G>GG g2 e|dBd BGB|A>AA a3|geg a3|
g2 e dBd|e2 A A2::e|A>AA e2 A|d2 A A2 B|G>GG g2 e|
dBd BGB|A>AA e2 A|dBA g2 a|g2 e dBd|e2 A A2:|
